src/assets/icons/shapes,simple,filled-star4.svg

<svg width="48" height="48" viewBox="0 0 48 48" fill="none" xmlns="http://www.w3.org/2000/svg">
<rect opacity="0.2" x="5" y="5" width="38" height="38" rx="4" fill="black"/>
<path d="M22.2846 11.8619C23.0505 10.584 23.4335 9.94508 24 9.94508C24.5665 9.94508 24.9495 10.584 25.7154 11.8619L29.364 17.9488C29.4921 18.1626 29.5561 18.2695 29.6433 18.3567C29.7305 18.4439 29.8374 18.5079 30.0512 18.636L36.1381 22.2846C37.416 23.0505 38.0549 23.4335 38.0549 24C38.0549 24.5665 37.416 24.9495 36.1381 25.7154L30.0512 29.364C29.8374 29.4921 29.7305 29.5561 29.6433 29.6433C29.5561 29.7305 29.4921 29.8374 29.364 30.0512L25.7154 36.1381C24.9495 37.416 24.5665 38.0549 24 38.0549C23.4335 38.0549 23.0505 37.416 22.2846 36.1381L18.636 30.0512C18.5079 29.8374 18.4439 29.7305 18.3567 29.6433C18.2695 29.5561 18.1626 29.4921 17.9488 29.364L11.8619 25.7154C10.584 24.9495 9.94508 24.5665 9.94508 24C9.94508 23.4335 10.584 23.0505 11.8619 22.2846L17.9488 18.636C18.1626 18.5079 18.2695 18.4439 18.3567 18.3567C18.4439 18.2695 18.5079 18.1626 18.636 17.9488L22.2846 11.8619Z" fill="black"/>
</svg>

<svg xmlns="http://www.w3.org/2000/svg" width="48" height="48" fill="none" viewBox="0 0 48 48">
  <rect width="38" height="38" x="5" y="5" fill="#000" opacity=".2" rx="4"/>
  <path fill="#000" d="M22.285 11.862c.765-1.278 1.148-1.917 1.715-1.917.567 0 .95.639 1.715 1.917l3.649 6.087c.128.214.192.32.28.408.087.087.193.15.407.279l6.087 3.649c1.278.765 1.917 1.148 1.917 1.715 0 .567-.639.95-1.917 1.715l-6.087 3.649c-.214.128-.32.192-.408.28-.087.087-.15.193-.279.407l-3.649 6.087c-.765 1.278-1.148 1.917-1.715 1.917-.567 0-.95-.639-1.715-1.917l-3.649-6.087c-.128-.214-.192-.32-.28-.408-.087-.087-.193-.15-.407-.279l-6.087-3.649C10.584 24.95 9.945 24.567 9.945 24c0-.567.639-.95 1.917-1.715l6.087-3.649c.214-.128.32-.192.408-.28.087-.087.15-.193.279-.407l3.649-6.087z"/>
</svg>
